packages/ffe-icons/icons/open/400/sm/add_road.svg

<svg xmlns="http://www.w3.org/2000/svg" height="20" viewBox="0 -960 960 960" width="20"><path d="M696-492v-240.404Q696-747 706.289-757.5q10.29-10.5 25.5-10.5Q747-768 757.5-757.65 768-747.3 768-732v240.404Q768-477 757.711-466.5q-10.29 10.5-25.5 10.5Q717-456 706.5-466.35 696-476.7 696-492ZM192-227.981v-503.727Q192-747 202.289-757.5q10.29-10.5 25.5-10.5Q243-768 253.5-757.656q10.5 10.345 10.5 25.637v503.727Q264-213 253.711-202.5q-10.29 10.5-25.5 10.5Q213-192 202.5-202.344 192-212.689 192-227.981Zm252-431.931v-71.825Q444-747 454.289-757.5q10.29-10.5 25.5-10.5Q495-768 505.5-757.675 516-747.35 516-732.088v71.825Q516-645 505.711-634.5q-10.29 10.5-25.5 10.5Q465-624 454.5-634.325 444-644.65 444-659.912Zm0 216v-71.825Q444-531 454.289-541.5q10.29-10.5 25.5-10.5Q495-552 505.5-541.675 516-531.35 516-516.088v71.825Q516-429 505.711-418.5q-10.29 10.5-25.5 10.5Q465-408 454.5-418.325 444-428.65 444-443.912Zm0 216v-71.825Q444-315 454.289-325.5q10.29-10.5 25.5-10.5Q495-336 505.5-325.675 516-315.35 516-300.088v71.825Q516-213 505.711-202.5q-10.29 10.5-25.5 10.5Q465-192 454.5-202.325 444-212.65 444-227.912Zm252 23.66h-72q-15.3 0-25.65-10.374Q588-225 588-240.234t10.35-25.539q10.35-10.305 25.65-10.305h72v-71.688Q696-363 706.289-373.5q10.29-10.5 25.5-10.5 15.211 0 25.585 10.35T767.748-348v72h72.168q15.336 0 25.71 10.35T876-240q0 15.3-10.374 25.65Q855.252-204 839.916-204h-72.168v72q0 15.3-10.374 25.65Q747-96 732-96q-15.3 0-25.65-10.374Q696-116.748 696-132.084v-72.168Z"/></svg>

<svg xmlns="http://www.w3.org/2000/svg" height="20" viewBox="0 -960 960 960" width="20"><path d="M696-492v-240.4q0-14.6 10.29-25.1 10.29-10.5 25.5-10.5t25.71 10.35Q768-747.3 768-732v240.4q0 14.6-10.29 25.1-10.29 10.5-25.5 10.5t-25.71-10.35Q696-476.7 696-492ZM192-227.98v-503.73q0-15.29 10.29-25.79t25.5-10.5q15.21 0 25.71 10.34 10.5 10.35 10.5 25.64v503.73q0 15.29-10.29 25.79t-25.5 10.5q-15.21 0-25.71-10.34-10.5-10.35-10.5-25.64Zm252-431.93v-71.83q0-15.26 10.29-25.76 10.29-10.5 25.5-10.5t25.71 10.32q10.5 10.33 10.5 25.59v71.83q0 15.26-10.29 25.76-10.29 10.5-25.5 10.5t-25.71-10.32Q444-644.65 444-659.91Zm0 216v-71.83q0-15.26 10.29-25.76 10.29-10.5 25.5-10.5t25.71 10.32q10.5 10.33 10.5 25.59v71.83q0 15.26-10.29 25.76-10.29 10.5-25.5 10.5t-25.71-10.32Q444-428.65 444-443.91Zm0 216v-71.83q0-15.26 10.29-25.76 10.29-10.5 25.5-10.5t25.71 10.32q10.5 10.33 10.5 25.59v71.83q0 15.26-10.29 25.76-10.29 10.5-25.5 10.5t-25.71-10.32Q444-212.65 444-227.91Zm252 23.66h-72q-15.3 0-25.65-10.38Q588-225 588-240.23q0-15.24 10.35-25.54 10.35-10.31 25.65-10.31h72v-71.69q0-15.23 10.29-25.73t25.5-10.5q15.21 0 25.58 10.35 10.38 10.35 10.38 25.65v72h72.17q15.33 0 25.71 10.35Q876-255.3 876-240q0 15.3-10.37 25.65Q855.25-204 839.92-204h-72.17v72q0 15.3-10.38 25.65Q747-96 732-96q-15.3 0-25.65-10.37Q696-116.75 696-132.08v-72.17Z"/></svg>
